teeny/solid/sd-card.svg

<svg width="15" height="15" viewBox="0 0 15 15" fill="none" xmlns="http://www.w3.org/2000/svg">
<path fill-rule="evenodd" clip-rule="evenodd" d="M5.29289 0H12.5C13.3284 0 14 0.671574 14 1.5V13.5C14 14.3284 13.3284 15 12.5 15H2.5C1.67157 15 1 14.3284 1 13.5V4.29289L5.29289 0ZM6 3V6H7V3H6ZM8 3V6H9V3H8ZM10 6V3H11V6H10Z" fill="black"/>
</svg>

<svg viewBox="0 0 15 15" xmlns="http://www.w3.org/2000/svg"><path fill-rule="evenodd" d="M5.29 0h7.2c.82 0 1.5.67 1.5 1.5v12c0 .82-.68 1.5-1.5 1.5h-10c-.83 0-1.5-.68-1.5-1.5V4.29l4.29-4.3Zm.7 3v3h1V3h-1Zm2 0v3h1V3h-1Zm2 3V3h1v3h-1Z"/></svg>
